img/quotes.svg

<svg id="fi_11398399" viewBox="0 0 1000 1000" xmlns="http://www.w3.org/2000/svg" data-name="Layer 1"><path d="m254.84 480.54h-106.67v-270.77h326.83v185.43c0 188.24-131.34 351.32-315.46 390.5-16.49 3.51-26.4 4.53-26.4 4.53l-33.14-80.74c146.41-73 154.84-228.95 154.84-228.95z"></path><path d="m679.8 480.54h-106.67v-270.77h326.87v185.43c0 188.24-131.35 351.32-315.47 390.5-16.49 3.51-26.39 4.53-26.39 4.53l-33.14-80.74c146.36-73 154.8-228.95 154.8-228.95z"></path></svg>

<svg viewBox="0 0 1000 1000" xmlns="http://www.w3.org/2000/svg" data-name="Layer 1"><path d="M254.84 480.54H148.17V209.77H475V395.2c0 188.24-131.34 351.32-315.46 390.5-16.49 3.51-26.4 4.53-26.4 4.53L100 709.49c146.41-73 154.84-228.95 154.84-228.95zm424.96 0H573.13V209.77H900V395.2c0 188.24-131.35 351.32-315.47 390.5-16.49 3.51-26.39 4.53-26.39 4.53L525 709.49c146.36-73 154.8-228.95 154.8-228.95z"/></svg>
